X:4401
L:1/8
M:3/4
K:C
"^Moderato" G | cc c2 (EG) | (AA A3) c | (BdGB) (de) | (fd) e3 c | (BdGB) (de) | (fd) e2 (e>d) | 
 (d/c/B/A/) (AG) (EG) | (AB) c2 (e>d) | (dc/B/A/) (AG) (EG) | (AB) [Ec]3 ||

